svgs/uds.svg

<svg xmlns="http://www.w3.org/2000/svg" xml:space="preserve" width="192" height="192" viewBox="0 0 192 192"><g style="fill:none;stroke:#000;stroke-width:12;stroke-linecap:round;stroke-linejoin:round"><circle cx="154" cy="38" r="16"/><path d="M138 96v-7.5a6.5 6.5 135 0 1 6.5-6.5h19a6.5 6.5 45 0 1 6.5 6.5V96m0 0a74 74 0 0 1-45.68 68.37 74 74 0 0 1-80.65-16.04 74 74 0 0 1-16.04-80.65A74 74 0 0 1 96 22m42 74a42 42 0 0 1-25.93 38.81 42 42 0 0 1-45.77-9.11 42 42 0 0 1-9.11-45.77A42 42 0 0 1 96 54m0-32h7.5a6.5 6.5 45 0 1 6.5 6.5v19a6.5 6.5 135 0 1-6.5 6.5H96"/></g></svg>

<?xml version="1.0" encoding="UTF-8" standalone="no"?>
<!-- Created with Inkscape (http://www.inkscape.org/) -->

<svg
   width="192"
   height="192"
   viewBox="0 0 192 192"
   version="1.1"
   xml:space="preserve"
   xmlns="http://www.w3.org/2000/svg"
   xmlns:svg="http://www.w3.org/2000/svg">
  <g style="fill:none;stroke:#000;stroke-width:12;stroke-linecap:round;stroke-linejoin:round">
    <circle cx="154" cy="38" r="16" />
    <path
      d="M 138,96 V 88.5 A 6.5,6.5 135 0 1 144.5,82 H 163.5 A 6.5,6.5 45 0 1 170,88.5 V 96
        M 170,96 A 74,74 0 0 1 124.32,164.37 74,74 0 0 1 43.67,148.33 74,74 0 0 1 27.63,67.68 74,74 0 0 1 96,22
        M 138,96 A 42,42 0 0 1 112.07,134.81 42,42 0 0 1 66.3,125.7 42,42 0 0 1 57.19,79.93 42,42 0 0 1 96,54
        M 96,22 H 103.5 A 6.5,6.5 45 0 1 110,28.5 V 47.5 A 6.5,6.5 135 0 1 103.5,54 H 96" />
  </g>
</svg>
